style-guide/assets/wds-icons-user.svg

<svg xmlns="http://www.w3.org/2000/svg" xmlns:xlink="http://www.w3.org/1999/xlink" viewBox="0 0 24 24">
  <defs>
    <path id="user-a" d="M12 3c-1.654 0-3 1.346-3 3s1.346 3 3 3 3-1.346 3-3-1.346-3-3-3m0 8c-2.757 0-5-2.243-5-5s2.243-5 5-5 5 2.243 5 5-2.243 5-5 5m8 12a1 1 0 0 1-1-1c0-3.86-3.141-7-7-7s-7 3.14-7 7a1 1 0 1 1-2 0c0-4.962 4.037-9 9-9s9 4.038 9 9a1 1 0 0 1-1 1"/>
  </defs>
  <use fill-rule="evenodd" xlink:href="#user-a"/>
</svg>

<svg xmlns="http://www.w3.org/2000/svg" xmlns:xlink="http://www.w3.org/1999/xlink" width="24" height="24" viewBox="0 0 24 24">
  <defs>
    <path id="user-a" d="M12,3 C10.346,3 9,4.346 9,6 C9,7.654 10.346,9 12,9 C13.654,9 15,7.654 15,6 C15,4.346 13.654,3 12,3 M12,11 C9.243,11 7,8.757 7,6 C7,3.243 9.243,1 12,1 C14.757,1 17,3.243 17,6 C17,8.757 14.757,11 12,11 M20,23 C19.447,23 19,22.552 19,22 C19,18.14 15.859,15 12,15 C8.141,15 5,18.14 5,22 C5,22.552 4.553,23 4,23 C3.447,23 3,22.552 3,22 C3,17.038 7.037,13 12,13 C16.963,13 21,17.038 21,22 C21,22.552 20.553,23 20,23"/>
  </defs>
  <use fill-rule="evenodd" xlink:href="#user-a"/>
</svg>
